X: 1589
T: Jim French's Waltz
B: australian traditional tunes wiki
M:3/4
L:1/8
R: Waltz
Q: 1/4=100
K:D
V:1 
AA|"D"F2G2^G2|A2f3e|d2F2G^G|A4^G2|"A"G3F ED|C2c3B|A2B3A|"D"F6-|F4zF|
F2G2^G2|A2f3e|d2F2G^G|A4^G2|"A"G3F ED|C2c3B|A2B2C2|"D"D2ED FA|d6|
d3A FD|"D"A,2D2F2|"A"c2cB GE|"Em"B,4zB,|"A"A,2C3E|"Em"G2B3E|"D"D2ED FA|B3A FA|
d3A FD|A,2D2F2|"A"c2cB GE|"Em"B,4zA,|"A"A,2C3E|G2B2C2|"D"D2ED FA|d6||
% abcbook-tune_id 6342d53a1106d99ca83630b3


% abcbook-boost 0
% abcbook-tablature 
% abcbook-transpose 
% abcbook-lastupdated 1665324372695
% abcbook-soundfonts 
% abcbook-repeats 1
% NFF Book 2015

